openframe-frontend-core/src/components/icons-v2/brand-logos/github-circle.svg

<svg width="24" height="24" viewBox="0 0 24 24" fill="none" xmlns="http://www.w3.org/2000/svg">
<path d="M20.8745 12.0005C20.8745 7.09912 16.9018 3.12526 12.0005 3.125C7.09896 3.125 3.125 7.09896 3.125 12.0005C3.12522 16.078 5.87625 19.5154 9.62451 20.5537L9.98926 20.646L10.1006 20.6782C10.6403 20.8622 10.9643 21.4291 10.833 21.9966C10.7017 22.5638 10.1621 22.9307 9.59668 22.8594L9.48242 22.8389L9.02393 22.7217C4.32538 21.42 0.875219 17.1147 0.875 12.0005C0.875 5.85632 5.85632 0.875 12.0005 0.875C18.1444 0.875264 23.1245 5.85648 23.1245 12.0005C23.1243 17.2789 19.4498 21.6968 14.52 22.8389L14.4058 22.8579C13.8404 22.9296 13.301 22.5637 13.1694 21.9966C13.0292 21.3913 13.4064 20.7862 14.0117 20.646L14.3779 20.5537C18.125 19.5146 20.8743 16.0772 20.8745 12.0005Z" fill="#888888"/>
<path d="M13.1413 21.7402V19.2251C13.1412 19.0457 13.1036 18.8806 13.0314 18.6729L12.7106 17.8613C12.3539 16.9644 13.0093 15.9746 13.9894 15.9746L14.2326 15.9629C15.4327 15.8403 16.3756 14.8208 16.3756 13.5723C16.3756 12.8465 16.2195 12.186 15.8952 11.6504L15.7457 11.4292C15.4204 10.9934 15.3676 10.4111 15.6095 9.9248L15.674 9.77393C15.731 9.61222 15.7546 9.44006 15.7472 9.2627C15.5448 9.34933 15.3567 9.47662 15.1906 9.64062C15.0267 9.80225 14.8145 9.9415 14.5534 10.0156C14.2945 10.0891 14.0537 10.0799 13.8576 10.0405C13.1296 9.89427 12.5716 9.77399 12.0016 9.77393C11.7167 9.77393 11.4344 9.80325 11.133 9.85156L10.1456 10.0405C9.94946 10.0799 9.70746 10.0891 9.44838 10.0156C9.25237 9.95992 9.08405 9.86751 8.94301 9.75635L8.81117 9.64062C8.64459 9.47617 8.45615 9.34935 8.25307 9.2627C8.2434 9.4964 8.2909 9.72122 8.39223 9.9248L8.46987 10.1108C8.5966 10.4908 8.55862 10.9078 8.36586 11.2593L8.25746 11.4292C7.83182 11.9994 7.62612 12.7427 7.62612 13.5723C7.62616 14.9039 8.69924 15.9743 10.0123 15.9746C10.9314 15.9746 11.5656 16.845 11.3468 17.6929L11.2912 17.8613C11.0116 18.5634 10.8621 18.8658 10.862 19.2251V21.7402C10.8618 22.3613 10.3579 22.8649 9.73696 22.8652C9.11571 22.8652 8.61208 22.3614 8.61196 21.7402V19.2251C8.61204 18.8131 8.69684 18.4172 8.80532 18.0649C6.8276 17.5312 5.37615 15.7192 5.37612 13.5723C5.37612 12.5318 5.60213 11.4371 6.19057 10.4727C5.86092 9.49634 5.98215 8.46622 6.41762 7.59131L6.51137 7.43457C6.75174 7.08566 7.14997 6.875 7.57631 6.875L7.97475 6.89404C8.75317 6.9714 9.47452 7.27666 10.0753 7.75977C10.6493 7.64464 11.313 7.52393 12.0016 7.52393C12.6898 7.52398 13.3526 7.6447 13.9264 7.75977C14.6285 7.19511 15.4961 6.87515 16.4254 6.875L16.6071 6.88818C16.9634 6.93858 17.2859 7.13537 17.4918 7.43457L17.5841 7.59131L17.7526 7.98096C18.0453 8.76397 18.0932 9.63755 17.8112 10.4727C18.3997 11.4372 18.6256 12.5317 18.6256 13.5723C18.6256 15.7192 17.1742 17.5298 15.1964 18.0635C15.3051 18.4161 15.3912 18.8125 15.3913 19.2251V21.7402C15.3911 22.3613 14.8873 22.865 14.2663 22.8652C13.645 22.8652 13.1414 22.3614 13.1413 21.7402Z" fill="#888888"/>
</svg>

<svg xmlns="http://www.w3.org/2000/svg" width="24" height="24" fill="none" viewBox="0 0 24 24">
  <path fill="#888" d="M20.875 12a8.875 8.875 0 1 0-11.25 8.554l.364.092.112.032a1.126 1.126 0 0 1-.504 2.181l-.115-.02-.458-.117C4.325 21.42.875 17.115.875 12 .875 5.857 5.856.876 12.001.876c6.143 0 11.124 4.981 11.124 11.126 0 5.278-3.675 9.696-8.605 10.838l-.114.019a1.125 1.125 0 0 1-.394-2.212l.366-.092A8.88 8.88 0 0 0 20.875 12Z"/>
  <path fill="#888" d="M13.141 21.74v-2.515c0-.18-.037-.344-.11-.552l-.32-.812a1.378 1.378 0 0 1 1.278-1.886l.244-.012a2.397 2.397 0 0 0 2.143-2.39c0-.726-.157-1.387-.48-1.923l-.15-.22a1.442 1.442 0 0 1-.136-1.505l.064-.151a1.36 1.36 0 0 0 .073-.511c-.202.086-.39.214-.556.378-.164.161-.377.3-.638.375a1.47 1.47 0 0 1-.695.024c-.728-.146-1.286-.266-1.856-.266-.285 0-.568.03-.869.078l-.987.188a1.457 1.457 0 0 1-1.203-.284l-.132-.115a1.8 1.8 0 0 0-.558-.378c-.01.233.038.458.14.662l.077.186c.127.38.089.797-.104 1.148l-.109.17c-.425.57-.63 1.314-.63 2.143a2.394 2.394 0 0 0 2.385 2.403c.92 0 1.554.87 1.335 1.718l-.056.168c-.28.702-.429 1.005-.429 1.364v2.515a1.126 1.126 0 0 1-2.25 0v-2.515c0-.412.085-.808.193-1.16a4.652 4.652 0 0 1-3.429-4.493c0-1.04.226-2.135.815-3.1-.33-.976-.209-2.006.227-2.88l.093-.157c.24-.35.639-.56 1.065-.56l.399.019c.778.077 1.5.383 2.1.866.574-.115 1.238-.236 1.927-.236.688 0 1.35.12 1.924.236a3.967 3.967 0 0 1 2.5-.885l.181.013c.356.05.679.247.885.547l.092.156.169.39c.292.783.34 1.657.058 2.492.589.964.815 2.059.815 3.1a4.65 4.65 0 0 1-3.43 4.49c.11.353.195.75.195 1.162v2.515a1.126 1.126 0 0 1-2.25 0Z"/>
</svg>
